X: 10521
M: 6/8
L: 1/8
K: Bb
V: 1 staves=3
|: F |\
|: !pp!F |\
|: F |\
V: 2
z2z |\
|: z |\
|: D |\
E2F GFE | D2D DCB, | A,2B, CB,A, | B,CB, B,2D |\
E2F GFE | D2D DCB, | A,2B, CB,A, | B,2z z2 :|
|: F |\
V: 3 clef=bass middle=d
z2z |\
|: z |\
b3 f3 | b2z z2z | b3  f3  | b2b b2z |\
b3 f3 | b2z z2z | b2b f2f | b2b b2 :|
|: z |\
|: z |\
b2z g2z | e2z z2=e | f2f f2f | B2z z2z |\
b2z g2z | e2z z2=e | f2f f2f | B2z z2 :|


